X:1
T:Title
%%score ( 1 2 3 ) ( 4 5 )
L:1/8
Q:1/4=100
M:4/4
K:Ab
V:1 treble nm="Grand Piano, Soprano"
V:2 treble 
V:3 treble 
V:4 bass nm="Choir Pad, The Love That Seeks"
V:5 bass 
V:1
 [CE]2 [CE]2- [CE][CE][_C=D][=CE] | [DF]>[CE] [CA]6 | [CA]2 [DG]2- [DG][DF][B,D][FA] | %3
w: By~Thomas~Curtis~Clark,~1908 * * * * *|||
 [EG]>[DF] [CE]6 | [CE]2 [CE]2- [CE][CE][_C=D][=CE] | [DF]>[CE] [CA]6 | %6
w: |||
 [Ec]2 [=DB]2- [DB][CA] [B,G]2 | [A,F]2 [G,E]4- [G,E][Ac] | [GB][Ac] [Ge]4- [Ge][Fd] | %9
w: |||
 [Ec][DB] [CE]4- [CE][CA] | [B,G][CA] [DB]4- [DB][Fd] | [Ec][=D_c] [E=c]4- [Ec][Ac] | %12
w: |||
 [GB][Ac] [Ge]4- [Ge][Fd] | [Ec][DB] [CA]4- [CA][FA] | z4 z2 c2- | c z z2 z4 | z8 |] %17
w: |||||
V:2
 x8 | x8 | x8 | x8 | x8 | x8 | x8 | x8 | x8 | x8 | x8 | x8 | x8 | x8 | %14
 [EG][DF][CE][Ec]- [Ec]2 =D2 | z B [CA]6- | [CA]2 z2 z4 |] %17
V:3
 x8 | x8 | x8 | x8 | x8 | x8 | x8 | x8 | x8 | x8 | x8 | x8 | x8 | x8 | x8 | D2 z2 z4 | x8 |] %17
V:4
 z2 A,,2 [E,A,]2 [E,A,]2 | [E,A,]2 A,,2 [E,A,]2 [E,A,]2 | z2 B,,2 [E,B,]2 E,,2 | %3
 [E,B,]2 A,,2 [E,A,]2 [E,A,]2 | z2 A,,2 [E,A,]2 [E,A,]2 | [E,A,]2 A,,2 [E,A,]2 [E,A,]2 | %6
 z4 F,2 z2 | =D,2 [E,,E,]6 | z2 z [E,B,] [G,B,]B, .[E,B,]2 | z2 z [A,,A,] [C,A,][E,A,] .A,2 | %10
 z2 z [E,G,] [G,B,]B, .[E,B,]2 | z2 z [A,,A,] [C,A,][E,A,] .A,2 | %12
 z2 z [E,B,] [G,B,]B,[E,B,][E,B,] | [E,G,][=E,G,] [F,A,]4- [F,A,][D,A,] | %14
 [D,A,][D,A,][E,A,][E,A,]- [E,A,]2 [B,,A,]2 | [E,G,]2 [A,,E,]6- | [A,,E,]2 z2 z4 |] %17
V:5
 x8 | x8 | x8 | x8 | x8 | x8 | z2 B,,4 B,,2- | B,,2 z2 z4 | x8 | x8 | x8 | x8 | x8 | x8 | x8 | x8 | %16
 x8 |] %17

